X:119
T:Go fetch me Lord Thomas (not ugly - what words has it?)
Z:Jack Campin - http://www.campin.me.uk
S:Blaikie MS (NLS MS.1578) p35, Blaikie #113
M:6/8
L:1/8
V:1 midi program 1 74l
V:2 midi program 1 46 bass middle = d transpose -24
Q:3/8=80
K:C Minor
[V:1] G   |c2c cde|dec B2G   |c2c cde|d2c B2
[V:2] z   |c3  c'3|G3  g3    |c3  c'3|g3  G2
%
[V:1] e/c/|BGE EFG|B2G F2G/A/|B2B e2c|B3 E2|]
[V:2] z   |E3  e3 |E3  B2z   |G3  A3 |B3 e2|]
W:Transcription (c) Jack Campin 2009, no mirroring or republication without permission

